symbols/web/nearby_off/materialsymbolsoutlined/nearby_off_grad200_24px.svg

<svg xmlns="http://www.w3.org/2000/svg" height="24" width="24"><path d="m19.575 16.6-2.4-2.4 2.25-2.25-7.3-7.35-2.3 2.25-2.35-2.35L10.2 1.825q.775-.775 1.888-.775 1.112 0 1.887.775L22.25 10.1q.775.775.788 1.875.012 1.1-.763 1.875Zm.55 7.05-3.75-3.75-2.4 2.3q-.8.75-1.9.75-1.1 0-1.875-.775l-8.35-8.35q-.775-.775-.775-1.875t.775-1.875L4.175 7.75l-3.75-3.8 1.8-1.85 19.8 19.75Zm-15.45-11.7 7.45 7.35 1.85-1.8-1.4-1.45-.45.45-4.6-4.55.5-.5-1.45-1.4-1.9 1.9Zm11.1.85-4.55-4.5.9-.9 4.5 4.55Z"/></svg>

<svg xmlns="http://www.w3.org/2000/svg" height="24" width="24"><path d="M19.575 16.6 17.175 14.2 19.425 11.95Q19.425 11.95 19.425 11.95Q19.425 11.95 19.425 11.95L12.125 4.6Q12.125 4.6 12.125 4.6Q12.125 4.6 12.125 4.6L9.825 6.85L7.475 4.5L10.2 1.825Q10.975 1.05 12.088 1.05Q13.2 1.05 13.975 1.825L22.25 10.1Q23.025 10.875 23.038 11.975Q23.05 13.075 22.275 13.85ZM20.125 23.65 16.375 19.9 13.975 22.2Q13.175 22.95 12.075 22.95Q10.975 22.95 10.2 22.175L1.85 13.825Q1.075 13.05 1.075 11.95Q1.075 10.85 1.85 10.075L4.175 7.75L0.425 3.95L2.225 2.1L22.025 21.85ZM4.675 11.95 12.125 19.3Q12.125 19.3 12.125 19.3Q12.125 19.3 12.125 19.3L13.975 17.5L12.575 16.05L12.125 16.5L7.525 11.95L8.025 11.45L6.575 10.05L4.675 11.95Q4.675 11.95 4.675 11.95Q4.675 11.95 4.675 11.95ZM15.775 12.8 11.225 8.3 12.125 7.4 16.625 11.95Z"/></svg>
